assets/images/line-y.svg

<svg height="120" viewBox="0 0 4 120" width="4" xmlns="http://www.w3.org/2000/svg"><g fill="#ced4da" fill-rule="evenodd"><path d="m-8.61308735 29.2191857c-.33017015-.0036512-.66190509-.051638-.98842408-.1074488-.38076495-.0651995-1.00165287-.1499851-1.00165287-.6826124 0-.5326274 1.59690199-.357745 2.30158207-.4237745 1.04871596-.0982663 2.13346239-.6110781 3.31603183-.6172554.9855966-.0051483 2.11957632-.1313899 3.10522191-.1259365.49186486.002608.9983344.0876281 1.46724905.2341966.30356877.0949304.53776529.3792001.54611082.7578787.00782394.3812865-.22585099.642606-.52472539.7740482-.29365845.1288342-.64156286.179429-.96651706.1851665-.71000519.0112558-1.23417648.0012418-1.94456795 0-.41483915-.0007252-1.01586563.0087958-1.43068171.008143-.12570777-.0001979-.25141186-.0003191-.37711068-.0003191-1.03777902-.1929904-2.33518449.0109536-3.50251594-.0020863zm18.71996975.0352598c-1.08178978 0-2.16357951.0119967-3.24536924-.0062591-.4125823-.0062592-.82620778-.0667643-1.23461731-.1340501-.41049591-.0672859-.7490116-.4365757-.8121247-.829859-.06885064-.4292733.40580155-.9388725.95243397-.9461748.81344079-.0105279 1.91146387.007819 2.72500841 0 1.76607577-.0169738 3.24786567-.0554495 5.01443037-.0625915.5028184-.0020864 1.0160687.0824121 1.4004848.4318813.1601299.1455253.2806185.4365757.2613195.6473004-.0187774.20916-.1919473.481433-.3765922.5805362-.277489.1491764-.6222638.2310669-.9404372.2378477-1.2476572.0260798-2.495836.0104319-3.7445364.0104319zm16.45108-1.0804822c-2.335004 0-1.502874.5880232-4.2233614.5880232s-2.2762441-1.006343-2.3784769-1.332862c-.081369-.2571468.1909041-.6832906.4428348-.8189055.6102671-.3280837 1.2753018-.3572931 1.9356421-.3442532 1.4077872.0281662 2.8155743.0985816 4.2233614.1450036.8282942.0276446.8010241.3639176 1.7183239.5943806s2.0642355.3493427 1.9814643.8254033c-.0349348.2009286-1.0641645.3411236-1.458491.3536419-1.3243318.0417277-2.6507499.0156479-3.9761249.0156479zm-46.8100954 1.0269665c-1.1668098 0-2.3341413.0093887-3.5009511-.0062591-.3286054-.0041728-.658254-.0698939-.9837297-.1272694-.2649707-.0474652-.5528916-.4861273-.5205527-.7584003.0453789-.3828514.3077416-.5867953.6394765-.6619051.4042368-.0918009.8230782-.1465685 1.2377469-.1622163 1.1626371-.0443357 2.3268389-.0646779 3.4905192-.0860634.9967696-.0177342 1.9940608-.0266013 2.9908305-.0339037.5022967-.002608 1.018155.0005216 1.4396044.3066984.1804722.1309205.3087847.3734626.3906753.5914896.0860633.2305454-.2326317.7584003-.4569179.8058656-.3228679.068329-.65043.1507412-.976949.1554355-.4945662.0070181-1.0084987-.1560237-1.5031636-.1554355-.7553281.0008981-1.4914114.1627379-2.2465888.1627379z" transform="matrix(0 1 -1 0 30.261 25.259)"/><path d="m-9.61231382 88.2199592c-.33017016-.0036512-.66190508-.051638-.98842408-.1074488-.380765-.0651994-1.0016528-.149985-1.0016528-.6826124s1.5969019-.3577449 2.301582-.4237745c1.04871595-.0982662 2.13346238-.6110781 3.31603182-.6172553.98559661-.0051484 2.11957632-.13139 3.10522192-.1259365.49186486.0026079.9983344.0876281 1.46724904.2341965.30356877.0949304.53776529.3792002.54611083.7578787.00782393.3812866-.22585099.6426061-.5247254.7740482-.29365845.1288342-.64156286.179429-.96651706.1851665-.71000519.0112558-1.23417648.0012419-1.94456794 0-.41483915-.0007252-1.01586563.0087959-1.43068172.008143-.12570776-.0001979-.25141185-.000319-.37711067-.000319-1.03777903-.1929905-2.33518449.0109535-3.50251594-.0020864zm18.7199697 1.0352599c-1.08178973 0-2.16357947.0119967-3.2453692-.0062592-.41258229-.0062591-.82620778-.0667643-1.23461731-.1340501-.41049591-.0672859-.7490116-.4365757-.81212469-.829859-.06885065-.4292733 1.49930966-1.4381956 2.046742-1.4381956 2.43182466 0 3.13001419.4294293 4.44499882.4920208 1.7317784.0824303.4335672-.0554495 2.2001319-.0625915.5028184-.0020864 1.0160687.0824122 1.4004848.4318814.1601299.1455252.2806186.4365757.2613195.6473004-.0187774.2091599-.1919472.4814329-.3765922.5805361-.2774889.1491764-.6222638.231067-.9404372.2378477-1.2476572.0260798-2.495836.0104319-3.74453642.0104319zm14.71625232-1.0804823c-1.0765738 0-2.1531475.005216-3.2297213-.002608-.3286054-.0026079-.6639915-.0052159-.9837297-.0698938-.3458181-.0704154-.5513268-.345818-.6535596-.672337-.0813689-.2571467.1909041-.6832905.4428349-.8189054.6102671-.3280838 1.2753017-.3572932 1.9356421-.3442533 1.4077871.0281662 2.8155742.0985816 4.2233613.1450037.8282942.0276445.8010241.3639175 1.7183239.5943805s2.0642355.3493428 1.9814643.8254033c-.0349348.2009286-1.0641645.3411236-1.4584909.3536419-1.3243318.0417277-2.65075.0156479-3.976125.0156479zm-45.0752677.0269665c-1.1668098 0-2.3341413.0093888-3.5009511-.0062591-.3286054-.0041728-.6582539-.0698939-.9837297-.1272694-.2649707-.0474652-.5528916-.4861273-.5205527-.7584003.0453789-.3828514.3077416-.5867953.6394765-.6619051.4042368-.0918009.8230782-.1465684 1.2377469-.1622163 1.1626371-.0443357 2.326839-.0646779 3.4905192-.0860633.9967697-.0177343 1.9940609-.0266014 2.9908305-.0339038.5022968-.0026079 1.018155.0005216 1.4396044.3066984.1804722.1309205.3087848.3734626.3906753.5914896.0860633.2305454-.2326317.7584004-.4569179.8058656-.3228678.068329-.65043.1507412-.976949.1554355-.4945662.0070181-1.0084987-.1560237-1.5031636-.1554355-.7553281.0008981-1.4914114.1627379-2.2465888.1627379z" transform="matrix(0 1 -1 0 89.262 86.258)"/></g></svg>

<svg xmlns="http://www.w3.org/2000/svg" width="4" height="120" viewBox="0 0 4 120">
  <g fill="none" fill-rule="evenodd">
    <rect width="4" height="120" fill="#212529"/>
    <path fill="#CED4DA" d="M-8.61308735,29.2191857 C-8.9432575,29.2155345 -9.27499244,29.1675477 -9.60151143,29.1117369 C-9.98227638,29.0465374 -10.6031643,28.9617518 -10.6031643,28.4291245 C-10.6031643,27.8964971 -9.00626231,28.0713795 -8.30158223,28.00535 C-7.25286627,27.9070837 -6.16811984,27.3942719 -4.9855504,27.3880946 C-3.9999538,27.3829463 -2.86597408,27.2567047 -1.88032849,27.2621581 C-1.38846363,27.2647661 -0.881994085,27.3497862 -0.413079442,27.4963547 C-0.109510674,27.5912851 0.12468585,27.8755548 0.133031383,28.2542334 C0.14085532,28.6355199 -0.0928196078,28.8968394 -0.391694013,29.0282816 C-0.685352461,29.1571158 -1.03325687,29.2077106 -1.35821107,29.2134481 C-2.06821626,29.2247039 -2.59238755,29.2146899 -3.30277902,29.2134481 C-3.71761817,29.2127229 -4.31864465,29.2222439 -4.73346073,29.2215911 C-4.8591685,29.2213932 -4.98487259,29.221272 -5.11057141,29.221272 C-6.14835043,29.0282816 -7.4457559,29.2322256 -8.61308735,29.2191857 Z M10.1068824,29.2544455 C9.02509262,29.2544455 7.94330289,29.2664422 6.86151316,29.2481864 C6.44893086,29.2419272 6.03530538,29.1814221 5.62689585,29.1141363 C5.21639994,29.0468504 4.87788425,28.6775606 4.81477115,28.2842773 C4.74592051,27.855004 5.2205727,27.3454048 5.76720512,27.3381025 C6.58064591,27.3275746 7.67866899,27.3459215 8.49221353,27.3381025 C10.2582893,27.3211287 11.7400792,27.282653 13.5066439,27.275511 C14.0094623,27.2734246 14.5227126,27.3579231 14.9071287,27.7073923 C15.0672586,27.8529176 15.1877472,28.143968 15.1684482,28.3546927 C15.1496708,28.5638527 14.9765009,28.8361257 14.791856,28.9352289 C14.514367,29.0844053 14.1695922,29.1662958 13.8514188,29.1730766 C12.6037616,29.1991564 11.3555828,29.1835085 10.1068824,29.1835085 L10.1068824,29.2544455 Z M26.5579624,28.1739633 C24.2229584,28.1739633 25.0550884,28.7619865 22.334601,28.7619865 C19.6141136,28.7619865 20.0583569,27.7556435 19.9561241,27.4291245 C19.8747551,27.1719777 20.1470282,26.7458339 20.3989589,26.610219 C21.009226,26.2821353 21.6742607,26.2529259 22.334601,26.2659658 C23.7423882,26.294132 25.1501753,26.3645474 26.5579624,26.4109694 C27.3862566,26.438614 27.3589865,26.774887 28.2762863,27.00535 C29.1935861,27.235813 30.3405218,27.3546927 30.2577506,27.8307533 C30.2228158,28.0316819 29.1935861,28.1718769 28.7992596,28.1843952 C27.4749278,28.2261229 26.1485097,28.2000431 24.8231347,28.2000431 L26.5579624,28.1739633 Z M-20.252133,29.2009298 C-21.4189428,29.2009298 -22.5862743,29.2103185 -23.7530841,29.1946707 C-24.0816895,29.1904979 -24.4113381,29.1247768 -24.7368138,29.0674013 C-25.0017845,29.0199361 -25.2897054,28.581274 -25.2573665,28.309001 C-25.2119876,27.9261496 -24.9496249,27.7222057 -24.61789,27.6470959 C-24.2136532,27.555295 -23.7948118,27.5005274 -23.3801431,27.4848796 C-22.217506,27.4405439 -21.0533042,27.4202017 -19.8896239,27.3988162 C-18.8928543,27.381082 -17.8955631,27.3722149 -16.8987934,27.3649125 C-16.3964967,27.3623045 -15.8806384,27.3654341 -15.459189,27.6716109 C-15.2787168,27.8025314 -15.1504043,28.0450735 -15.0685137,28.2631005 C-14.9824504,28.4936459 -15.3011454,29.0215008 -15.5254316,29.0689661 C-15.8482995,29.1372951 -16.1758616,29.2197073 -16.5023806,29.2244016 C-16.9969468,29.2314197 -17.5108793,29.0683779 -18.0055442,29.0689661 C-18.7608723,29.0698642 -19.4969556,29.231704 -20.252133,29.231704 L-20.252133,29.2009298 Z" transform="rotate(90 2.501 27.76)"/>
    <path fill="#CED4DA" d="M-9.61231382,88.2199592 C-9.94248398,88.216308 -10.2742189,88.1683212 -10.6007379,88.1125104 C-10.9815029,88.047311 -11.6023907,87.9625254 -11.6023907,87.429898 C-11.6023907,86.8972706 -10.0054888,87.0721531 -9.3008087,87.0061235 C-8.25209275,86.9078573 -7.16734632,86.3950454 -5.98477688,86.3888682 C-4.99918027,86.3837198 -3.86520056,86.2574782 -2.87955496,86.2629317 C-2.3876901,86.2655396 -1.88122056,86.3505598 -1.41230592,86.4971282 C-1.10873715,86.5920586 -0.874540627,86.8763284 -0.866195094,87.2550069 C-0.858371156,87.6362935 -1.09204608,87.897613 -1.39092049,88.0290551 C-1.68457894,88.1578893 -2.03248335,88.2084841 -2.35743755,88.2142216 C-3.06744274,88.2254774 -3.59161403,88.2154635 -4.30200549,88.2142216 C-4.71684464,88.2134964 -5.31787112,88.2230175 -5.73268721,88.2223646 C-5.85839497,88.2221667 -5.98409906,88.2220456 -6.10979788,88.2220456 C-7.14757691,88.0290551 -8.44498237,88.2329991 -9.61231382,88.2199592 Z M9.10765588,89.2552191 C8.02586615,89.2552191 6.94407641,89.2672158 5.86228668,89.2489599 C5.44970439,89.2427008 5.0360789,89.1821956 4.62766937,89.1149098 C4.21717346,89.0476239 3.87865777,88.6783341 3.81554468,88.2850508 C3.74669403,87.8557775 5.31485434,86.8468552 5.86228668,86.8468552 C8.29411134,86.8468552 8.99230087,87.2762845 10.3072855,87.338876 C12.0390639,87.4213063 10.7408527,87.2834265 12.5074174,87.2762845 C13.0102358,87.2741981 13.5234861,87.3586967 13.9079022,87.7081659 C14.0680321,87.8536911 14.1885208,88.1447416 14.1692217,88.3554663 C14.1504443,88.5646262 13.9772745,88.8368992 13.7926295,88.9360024 C13.5151406,89.0851788 13.1703657,89.1670694 12.8521923,89.1738501 C11.6045351,89.1999299 10.3563563,89.184282 9.10765588,89.184282 L9.10765588,89.2552191 Z M23.8239082,88.1747368 C22.7473344,88.1747368 21.6707607,88.1799528 20.5941869,88.1721288 C20.2655815,88.1695209 19.9301954,88.1669129 19.6104572,88.102235 C19.2646391,88.0318196 19.0591304,87.756417 18.9568976,87.429898 C18.8755287,87.1727513 19.1478017,86.7466075 19.3997325,86.6109926 C20.0099996,86.2829088 20.6750342,86.2536994 21.3353746,86.2667393 C22.7431617,86.2949055 24.1509488,86.3653209 25.5587359,86.411743 C26.3870301,86.4393875 26.35976,86.7756605 27.2770598,87.0061235 C28.1943596,87.2365865 29.3412953,87.3554663 29.2585241,87.8315268 C29.2235893,88.0324554 28.1943596,88.1726504 27.8000332,88.1851687 C26.4757014,88.2268964 25.1492832,88.2008166 23.8239082,88.2008166 L23.8239082,88.1747368 Z M-21.2513595,88.2017033 C-22.4181693,88.2017033 -23.5855008,88.2110921 -24.7523106,88.1954442 C-25.080916,88.1912714 -25.4105645,88.1255503 -25.7360403,88.0681748 C-26.001011,88.0207096 -26.2889319,87.5820475 -26.256593,87.3097745 C-26.2112141,86.9269231 -25.9488514,86.7229792 -25.6171165,86.6478694 C-25.2128797,86.5560685 -24.7940383,86.501301 -24.3793696,86.4856531 C-23.2167325,86.4413174 -22.0525306,86.4209752 -20.8888504,86.3995898 C-19.8920807,86.3818555 -18.8947895,86.3729884 -17.8980199,86.365686 C-17.3957231,86.3630781 -16.8798649,86.3662076 -16.4584155,86.6723844 C-16.2779433,86.8033049 -16.1496307,87.045847 -16.0677402,87.263874 C-15.9816769,87.4944194 -16.3003719,88.0222744 -16.5246581,88.0697396 C-16.8475259,88.1380686 -17.1750881,88.2204808 -17.5016071,88.2251751 C-17.9961733,88.2321932 -18.5101058,88.0691514 -19.0047707,88.0697396 C-19.7600988,88.0706377 -20.4961821,88.2324775 -21.2513595,88.2324775 L-21.2513595,88.2017033 Z" transform="rotate(90 1.502 87.76)"/>
  </g>
</svg>
